X:1
T:VALSE HOT
C:Sonny ROLLINS (1956)
O:Chords: Anthologie des grilles de jazz, p. 439 (data/chords/05_annotated/439_01_VALSE_HOT.json). Melody: AGJ melody ms (data/melody/01_crops/874_01_VALSE_HOT.png).
R:hard bop, medium waltz
M:3/4
L:1/8
K:Ab
"^A"A2 EF GA| Bcde fa | gfef g2 | z2 z2 ge |
defg f2 |z2 gf ed| cd e2 z2 |z2 =EF f=e |
"^B"dcGA d2 |z2 _FA BA | c2 z2 d2- |d2 cd =AF |
c2 c2 _AF | Bcde cG |BAAG A2- |A4 z2 |]
